X: 1
T: Clapton, The
M: 6/8
L: 1/8
R: jig
K: Ador
age a2b|ged BAG|age age|def ~g3|
age a2b|ged BAG|~c3 ~d3|1 ede ~g3:|2 ege dBA||
|:~d3 cAG|A/c/dA cAG|A/c/dA cAG|~E3 GEG|
A2d cAG|A/c/dA cAG|1 A/c/dA cAG|~E3 D3:|2 ~c3 ~d3|ede ~g3||
